libs/icons/src/svg/star.svg

<svg width="16" height="16" viewBox="0 0 16 16" fill="none" xmlns="http://www.w3.org/2000/svg">
<path fill-rule="evenodd" clip-rule="evenodd" d="M7.99996 1.33333C8.29006 1.33333 8.54687 1.52093 8.63507 1.7973L9.97633 6H14C14.2857 6 14.5396 6.18205 14.6313 6.45263C14.7231 6.72321 14.6322 7.02216 14.4054 7.1959L11.1897 9.65913L12.5333 13.794C12.6226 14.0686 12.5248 14.3696 12.2912 14.5393C12.0575 14.7091 11.7411 14.7091 11.5075 14.5394L7.99996 11.9913L4.49245 14.5394C4.25879 14.7091 3.94239 14.7091 3.70875 14.5393C3.4751 14.3696 3.37734 14.0686 3.46659 13.794L4.81019 9.65913L1.59456 7.1959C1.36775 7.02216 1.27686 6.72321 1.36858 6.45263C1.46031 6.18205 1.71425 6 1.99996 6H6.02359L7.36485 1.7973C7.45305 1.52093 7.70986 1.33333 7.99996 1.33333ZM7.99996 4.19272L7.14573 6.86935C7.05753 7.14572 6.80073 7.33333 6.51063 7.33333H3.96656L5.99536 8.88742C6.21971 9.05928 6.31133 9.35392 6.22399 9.62269L5.3687 12.2548L7.60814 10.628C7.84178 10.4582 8.15814 10.4582 8.39178 10.628L10.6312 12.2548L9.77593 9.62269C9.68859 9.35392 9.78021 9.05928 10.0046 8.88742L12.0334 7.33333H9.48929C9.19919 7.33333 8.94239 7.14572 8.85419 6.86935L7.99996 4.19272Z" fill="#202327"/>
</svg>

<svg xmlns="http://www.w3.org/2000/svg" viewBox="0 0 16 16" class="sageicon"><path fill-rule="evenodd" d="M8 1.333c.29 0 .547.188.635.464L9.976 6H14a.667.667 0 0 1 .405 1.196L11.19 9.659l1.343 4.135a.667.667 0 0 1-1.025.745L8 11.991 4.492 14.54a.667.667 0 0 1-1.025-.745L4.81 9.659 1.595 7.196A.667.667 0 0 1 2 6h4.024l1.34-4.203A.667.667 0 0 1 8 1.333Zm0 2.86-.854 2.676a.667.667 0 0 1-.635.464H3.967l2.028 1.554a.667.667 0 0 1 .229.736l-.855 2.632 2.24-1.627c.233-.17.55-.17.783 0l2.24 1.627-.856-2.632a.667.667 0 0 1 .229-.736l2.028-1.554H9.49a.667.667 0 0 1-.635-.464L8 4.193Z"/></svg>
